X:22701
T:Michael Turner's Waltz
R:Waltz
B:Tuneworks Tunebook 2 (https://www.tuneworks.co.uk/)
G:Tuneworks
Z:Jon Warbrick <jon.warbrick@googlemail.com>
M:3/4
L:1/8
K:G
|: GA | "G" B2 BD cA | "Bm" d2 d2 gf | "C" e2 e2 ge | "G" d2 d2 GA |
"G" B2 BD cA | "Bm" d2 d2 cA | "C" G2 G2"D7" AB | "G" G4 :|
|: AB | "C" c2 cd Bc | "D" A2 A2 Bc | "G" d2 de cd | "Em" B2 B2 gf |
"C" e2 e2 ge | "G" d2 d2 GA | "D" B2 Bc AB | "G" G4 :|
